X:14992
T:Schottische (from The Neck-Breakers)
S:Charlie Saksena got this from a Swedish band whose name translates to this (he says)
R:Schottische
O:Sweden
M:4/4
K:D
D2 | \
A2BA G2FE | D2FA fafd |\
e2ge cABc |1 d2cB AGFE :|2 d2d2d2 :|*
|: c2 |\
BGBd gdBG | AFAd fafd | \
e2ge cABc |1 d2cB A2 :|2 d2d2d2 :|**
